icon-themes/sifr_svg/cmd/sc_assignlayout.svg

<svg viewBox="0 0 16 16" xmlns="http://www.w3.org/2000/svg"><path d="m0 1v12h16v-12zm2 2h12v8h-12zm1 1v2h10v-2zm0 3v3h4v-3zm6 0v3h4v-3z" fill="#555753"/></svg>

<svg xmlns="http://www.w3.org/2000/svg" viewBox="0 0 16 16">
  <path
     style="fill:#555753"
     d="M 0,1 V 13 H 16 V 1 Z m 2,2 h 12 v 8 H 2 Z M 3,4 V 6 H 13 V 4 Z m 0,3 v 3 H 7 V 7 Z m 6,0 v 3 h 4 V 7 Z"
     />
</svg>
